symbols/web/nature_people/materialsymbolsoutlined/nature_people_wght100gradN25_40px.svg

<svg xmlns="http://www.w3.org/2000/svg" height="40" width="40"><path d="M7.583 21.708q-.625 0-1.062-.437-.438-.438-.438-1.063t.438-1.062q.437-.438 1.062-.438.584 0 1.042.438.458.437.458 1.062t-.458 1.063q-.458.437-1.042.437Zm-1 13.834v-6H5.417v-5.834q0-.25.125-.354.125-.104.375-.104h3.291q.209 0 .375.104.167.104.167.354v5.834H8.583v5.041H24.75V23.458h-4.125q-2 0-3.375-1.333T15.875 19q0-1.625 1.104-3.021t2.896-2.146q-.042-2.666 1.646-4.208 1.687-1.542 3.729-1.542 1.958 0 3.667 1.542 1.708 1.542 1.708 4.208 1.75.75 2.875 2.146T34.625 19q0 1.792-1.396 3.125t-3.354 1.333h-4.167v11.125h8.417v.959Zm14.042-13.084h9.208q1.542 0 2.688-.979Q33.667 20.5 33.667 19q0-1.458-.979-2.562-.98-1.105-2.313-1.646l-.792-.292.042-.708q.042-1.959-1.25-3.354-1.292-1.396-3.167-1.396-1.833 0-3.125 1.396-1.291 1.395-1.25 3.354l.084.708-.75.292q-1.459.541-2.396 1.646-.938 1.104-.938 2.562 0 1.5 1.125 2.479 1.125.979 2.667.979Zm4.625-6.75Z"/></svg>

<svg xmlns="http://www.w3.org/2000/svg" height="40" width="40"><path d="M7.583 21.708Q6.958 21.708 6.521 21.271Q6.083 20.833 6.083 20.208Q6.083 19.583 6.521 19.146Q6.958 18.708 7.583 18.708Q8.167 18.708 8.625 19.146Q9.083 19.583 9.083 20.208Q9.083 20.833 8.625 21.271Q8.167 21.708 7.583 21.708ZM6.583 35.542V29.542H5.417V23.708Q5.417 23.458 5.542 23.354Q5.667 23.25 5.917 23.25H9.208Q9.417 23.25 9.583 23.354Q9.75 23.458 9.75 23.708V29.542H8.583V34.583H24.75V23.458H20.625Q18.625 23.458 17.25 22.125Q15.875 20.792 15.875 19Q15.875 17.375 16.979 15.979Q18.083 14.583 19.875 13.833Q19.833 11.167 21.521 9.625Q23.208 8.083 25.25 8.083Q27.208 8.083 28.917 9.625Q30.625 11.167 30.625 13.833Q32.375 14.583 33.5 15.979Q34.625 17.375 34.625 19Q34.625 20.792 33.229 22.125Q31.833 23.458 29.875 23.458H25.708V34.583H34.125V35.542ZM20.625 22.458H29.833Q31.375 22.458 32.521 21.479Q33.667 20.5 33.667 19Q33.667 17.542 32.688 16.438Q31.708 15.333 30.375 14.792L29.583 14.5L29.625 13.792Q29.667 11.833 28.375 10.438Q27.083 9.042 25.208 9.042Q23.375 9.042 22.083 10.438Q20.792 11.833 20.833 13.792L20.917 14.5L20.167 14.792Q18.708 15.333 17.771 16.438Q16.833 17.542 16.833 19Q16.833 20.5 17.958 21.479Q19.083 22.458 20.625 22.458ZM25.25 15.708Q25.25 15.708 25.25 15.708Q25.25 15.708 25.25 15.708Q25.25 15.708 25.25 15.708Q25.25 15.708 25.25 15.708Q25.25 15.708 25.25 15.708Q25.25 15.708 25.25 15.708Q25.25 15.708 25.25 15.708Q25.25 15.708 25.25 15.708Q25.25 15.708 25.25 15.708Q25.25 15.708 25.25 15.708Q25.25 15.708 25.25 15.708Q25.25 15.708 25.25 15.708Z"/></svg>
